common.blocks/social-icon/_clear/social-icon_clear_ya-default.svg

<svg xmlns="http://www.w3.org/2000/svg" width="24" height="24" viewBox="0 0 24 24">
  <path fill="#FF0000" d="M11.694102,21.9954106 C11.7956944,21.9984629 11.8976677,22 12,22 C17.5228474,22 22,17.5228474 22,12 C22,6.4771525 17.5228474,2 12,2 C6.4771525,2 2,6.4771525 2,12 C2,14.7613959 3.11926559,17.2613734 4.92887751,19.0710131 L2,21.9954106 L11.694102,21.9954106 Z M11.9959416,13.6660957 L9.52029221,19.1395721 L7.71428571,19.1395721 L10.4334416,13.2865481 C9.79761587,12.9669274 9.28355174,12.4974916 8.89123377,11.8782266 C8.49891579,11.2589616 8.30275974,10.4166406 8.30275974,9.3512384 C8.30275974,8.60545686 8.41436577,7.94957847 8.63758117,7.38358356 C8.86079657,6.81758864 9.16517664,6.34815284 9.55073051,5.97526207 C9.9362844,5.6023713 10.3860905,5.32270741 10.9001623,5.13626203 C11.4142342,4.94981664 11.9553543,4.85659536 12.523539,4.85659536 L14.8571429,4.85659536 L14.8571429,19.1395721 L13.2946429,19.1395721 L13.2946429,13.6660957 L11.9959416,13.6660957 Z M13.2946429,6.15504779 L12.4626623,6.15504779 C12.1515136,6.15504779 11.8471335,6.21164643 11.549513,6.32484541 C11.2518925,6.4380444 10.9880964,6.61782833 10.7581169,6.86420259 C10.5281374,7.11057684 10.3421273,7.43685137 10.2000812,7.84303596 C10.058035,8.24922054 9.98701299,8.75194966 9.98701299,9.3512384 C9.98701299,9.92389207 10.051271,10.4033159 10.179789,10.7895242 C10.3083069,11.1757325 10.484171,11.4886897 10.7073864,11.7284052 C10.9306018,11.9681207 11.1943978,12.1379166 11.4987825,12.237798 C11.8031671,12.3376795 12.1244572,12.3876195 12.4626623,12.3876195 L13.2946429,12.3876195 L13.2946429,6.15504779 Z"/>
</svg>

<svg xmlns="http://www.w3.org/2000/svg" width="24" height="24"><path fill="red" d="M11.694 21.995c.102.003.204.005.306.005 5.523 0 10-4.477 10-10S17.523 2 12 2 2 6.477 2 12a9.969 9.969 0 0 0 2.929 7.071L2 21.995h9.694zm.302-8.329L9.52 19.14H7.714l2.72-5.853a3.844 3.844 0 0 1-1.543-1.409c-.392-.619-.588-1.461-.588-2.527 0-.746.111-1.401.335-1.967a3.933 3.933 0 0 1 .913-1.409 3.763 3.763 0 0 1 1.35-.839 4.724 4.724 0 0 1 1.623-.28h2.333V19.14h-1.562v-5.474h-1.3zm1.299-7.511h-.832a2.55 2.55 0 0 0-.913.17 2.091 2.091 0 0 0-.792.54c-.23.246-.416.572-.558.978-.142.406-.213.909-.213 1.508 0 .573.064 1.052.193 1.439.128.386.304.699.527.938.224.24.487.41.792.51.304.1.625.15.964.15h.832V6.155z"/></svg>
